Numix/64/mimetypes/virtualbox-vbox.svg

<?xml version="1.0" encoding="UTF-8" standalone="no"?>
<svg
   xmlns:dc="http://purl.org/dc/elements/1.1/"
   xmlns:cc="http://creativecommons.org/ns#"
   xmlns:rdf="http://www.w3.org/1999/02/22-rdf-syntax-ns#"
   xmlns:svg="http://www.w3.org/2000/svg"
   xmlns="http://www.w3.org/2000/svg"
   xmlns:sodipodi="http://sodipodi.sourceforge.net/DTD/sodipodi-0.dtd"
   xmlns:inkscape="http://www.inkscape.org/namespaces/inkscape"
   width="64px"
   height="64px"
   viewBox="0 0 64 64"
   version="1.1"
   id="svg2"
   inkscape:version="0.91 r13725"
   sodipodi:docname="application-vbox-1_P.svg">
  <metadata
     id="metadata15">
    <rdf:RDF>
      <cc:Work
         rdf:about="">
        <dc:format>image/svg+xml</dc:format>
        <dc:type
           rdf:resource="http://purl.org/dc/dcmitype/StillImage" />
        <dc:title></dc:title>
      </cc:Work>
    </rdf:RDF>
  </metadata>
  <defs
     id="defs13">
    <clipPath
       id="clipPath-419917221">
      <g
         transform="translate(0,-1004.3622)"
         id="g17">
        <path
           inkscape:connector-curvature="0"
           d="m -24,13 c 0,1.105 -0.672,2 -1.5,2 -0.828,0 -1.5,-0.895 -1.5,-2 0,-1.105 0.672,-2 1.5,-2 0.828,0 1.5,0.895 1.5,2 z"
           transform="matrix(15.333333,0,0,11.5,414.99999,878.8622)"
           style="fill:#1890d0"
           id="path19" />
      </g>
    </clipPath>
    <clipPath
       id="clipPath-412789426">
      <g
         transform="translate(0,-1004.3622)"
         id="g12">
        <path
           inkscape:connector-curvature="0"
           d="m -24,13 c 0,1.105 -0.672,2 -1.5,2 -0.828,0 -1.5,-0.895 -1.5,-2 0,-1.105 0.672,-2 1.5,-2 0.828,0 1.5,0.895 1.5,2 z"
           transform="matrix(15.333333,0,0,11.5,414.99999,878.8622)"
           style="fill:#1890d0"
           id="path14" />
      </g>
    </clipPath>
    <clipPath
       id="clipPath4213">
      <g
         transform="translate(0,-1004.3622)"
         id="g4215">
        <path
           inkscape:connector-curvature="0"
           d="m -24,13 c 0,1.105 -0.672,2 -1.5,2 -0.828,0 -1.5,-0.895 -1.5,-2 0,-1.105 0.672,-2 1.5,-2 0.828,0 1.5,0.895 1.5,2 z"
           transform="matrix(15.333333,0,0,11.5,414.99999,878.8622)"
           style="fill:#1890d0"
           id="path4217" />
      </g>
    </clipPath>
    <clipPath
       id="clipPath-419917221-6">
      <g
         transform="translate(0,-1004.3622)"
         id="g17-4">
        <path
           inkscape:connector-curvature="0"
           d="m -24,13 c 0,1.105 -0.672,2 -1.5,2 -0.828,0 -1.5,-0.895 -1.5,-2 0,-1.105 0.672,-2 1.5,-2 0.828,0 1.5,0.895 1.5,2 z"
           transform="matrix(15.333333,0,0,11.5,414.99999,878.8622)"
           style="fill:#1890d0"
           id="path19-0" />
      </g>
    </clipPath>
    <clipPath
       id="clipPath-412789426-7">
      <g
         transform="translate(0,-1004.3622)"
         id="g12-2">
        <path
           inkscape:connector-curvature="0"
           d="m -24,13 c 0,1.105 -0.672,2 -1.5,2 -0.828,0 -1.5,-0.895 -1.5,-2 0,-1.105 0.672,-2 1.5,-2 0.828,0 1.5,0.895 1.5,2 z"
           transform="matrix(15.333333,0,0,11.5,414.99999,878.8622)"
           style="fill:#1890d0"
           id="path14-8" />
      </g>
    </clipPath>
    <clipPath
       id="clipPath4251">
      <g
         transform="translate(0,-1004.3622)"
         id="g4253">
        <path
           inkscape:connector-curvature="0"
           d="m -24,13 c 0,1.105 -0.672,2 -1.5,2 -0.828,0 -1.5,-0.895 -1.5,-2 0,-1.105 0.672,-2 1.5,-2 0.828,0 1.5,0.895 1.5,2 z"
           transform="matrix(15.333333,0,0,11.5,414.99999,878.8622)"
           style="fill:#1890d0"
           id="path4255" />
      </g>
    </clipPath>
  </defs>
  <sodipodi:namedview
     pagecolor="#ffffff"
     bordercolor="#666666"
     borderopacity="1"
     objecttolerance="10"
     gridtolerance="10"
     guidetolerance="10"
     inkscape:pageopacity="0"
     inkscape:pageshadow="2"
     inkscape:window-width="1920"
     inkscape:window-height="1013"
     id="namedview11"
     showgrid="false"
     inkscape:zoom="8"
     inkscape:cx="37.485207"
     inkscape:cy="0.80396649"
     inkscape:window-x="0"
     inkscape:window-y="27"
     inkscape:window-maximized="1"
     inkscape:current-layer="svg2">
    <inkscape:grid
       type="xygrid"
       id="grid4157" />
  </sodipodi:namedview>
  <path
     inkscape:connector-curvature="0"
     id="path5"
     d="M 10.671875,0 C 9.296875,0 8,1.355469 8,2.789062 L 8,61.210938 C 8,62.566406 9.375,64 10.671875,64 l 42.65625,0 C 54.625,64 56,62.566406 56,61.210938 L 56,18 38,0 Z m 0,0"
     style="fill:#14aae9;fill-opacity:1;fill-rule:nonzero;stroke:none" />
  <path
     inkscape:connector-curvature="0"
     id="path7"
     d="m 42,18 14,14 0,-14 z m 0,0"
     style="fill:#000000;fill-opacity:0.19607801;fill-rule:nonzero;stroke:none" />
  <path
     inkscape:connector-curvature="0"
     id="path9"
     d="M 38,0 55.984375,18 40.757812,18 C 39.410156,18 38,16.574219 38,15.226562 Z m 0,0"
     style="fill:#ffffff;fill-opacity:0.39215698;fill-rule:nonzero;stroke:none" />
  <path
     inkscape:connector-curvature="0"
     id="path13"
     d="m 8.000001,48 0,13.33594 c 0,1.29687 1.375,2.66406 2.664062,2.66406 l 42.671876,0 c 1.289062,0 2.664062,-1.36719 2.664062,-2.66406 l 0,-13.33594 z m 0,0"
     style="fill:#000000;fill-opacity:0.19607801;fill-rule:nonzero;stroke:none" />
  <g
     id="g4172">
    <path
       d="M 18.913686,62 Q 18.509475,60.773828 18.054739,59.227787 17.600002,57.681745 17.195792,56.153474 16.79158,54.607432 16.471581,53.239096 16.151581,51.87076 16.000002,51 l 2.189474,0 q 0.101057,0.85299 0.303157,1.990308 0.202106,1.119547 0.437895,2.327948 0.252632,1.19063 0.522106,2.363489 0.286315,1.155088 0.555789,2.07916 0.269474,-0.9063 0.538947,-2.06139 0.269474,-1.172859 0.505263,-2.363488 0.23579,-1.208401 0.437896,-2.345719 Q 21.692633,51.85299 21.82737,51 l 2.172632,0 q -0.202104,1.066237 -0.505262,2.381261 -0.286316,1.315024 -0.673685,2.772213 -0.370526,1.439418 -0.825263,2.949919 Q 21.541055,60.596123 21.052633,62 l -2.138947,0 z"
       style="font-style:normal;font-variant:normal;font-weight:bold;font-stretch:normal;font-size:16.77334785px;line-height:125%;font-family:'Ubuntu Mono';-inkscape-font-specification:'Ubuntu Mono, Bold';text-align:start;letter-spacing:0px;word-spacing:0px;writing-mode:lr-tb;text-anchor:start;fill:#ffffff;fill-opacity:1;stroke:none;stroke-width:1px;stroke-linecap:butt;stroke-linejoin:miter;stroke-opacity:1"
       id="path4160"
       inkscape:connector-curvature="0" />
    <path
       d="m 32,58.616722 q 0,0.971609 -0.320482,1.630914 -0.320482,0.641956 -0.877108,1.041009 -0.539759,0.381704 -1.298795,0.555204 Q 28.761447,62 27.901206,62 27.209639,62 26.46747,61.913245 25.725302,61.843846 25,61.687693 l 0,-10.427436 q 0.590362,-0.1041 1.298796,-0.173502 Q 27.007228,51 27.698796,51 q 1.180723,0 1.922891,0.260252 0.742169,0.242902 1.163855,0.659305 0.421688,0.399054 0.573494,0.902208 0.151807,0.503153 0.151807,1.006308 0,0.763407 -0.371083,1.353311 -0.354218,0.589905 -0.961446,0.936908 1.062651,0.399053 1.433734,1.075709 Q 32,57.870656 32,58.616712 Z m -4.925301,-1.457412 0,2.914825 q 0.219277,0.03471 0.47229,0.05205 0.269879,0.01735 0.522891,0.01735 0.354217,0 0.691567,-0.05205 0.337349,-0.0694 0.59036,-0.225552 0.26988,-0.1735 0.438555,-0.468453 0.168674,-0.312302 0.168674,-0.780757 0,-0.780756 -0.489157,-1.110409 -0.472287,-0.347003 -1.281927,-0.347003 l -1.113253,0 z m 0.80964,-1.769713 q 0.79277,0 1.197589,-0.347003 0.40482,-0.364354 0.40482,-0.988958 0,-0.381704 -0.118073,-0.607255 -0.118072,-0.242902 -0.320481,-0.364354 -0.202411,-0.1388 -0.47229,-0.173502 -0.26988,-0.05205 -0.556626,-0.05205 -0.236145,0 -0.489157,0.01735 -0.253012,0.01735 -0.455422,0.05205 l 0,2.463721 0.80964,0 z"
       style="font-style:normal;font-variant:normal;font-weight:bold;font-stretch:normal;font-size:16.77334785px;line-height:125%;font-family:'Ubuntu Mono';-inkscape-font-specification:'Ubuntu Mono, Bold';text-align:start;letter-spacing:0px;word-spacing:0px;writing-mode:lr-tb;text-anchor:start;fill:#ffffff;fill-opacity:1;stroke:none;stroke-width:1px;stroke-linecap:butt;stroke-linejoin:miter;stroke-opacity:1"
       id="path4162"
       inkscape:connector-curvature="0" />
    <path
       d="m 34.961883,56.5 q 0,0.766254 0.04708,1.447368 0.06277,0.664087 0.219732,1.157895 0.172646,0.493809 0.470851,0.783282 0.298207,0.289474 0.800449,0.289474 0.486547,0 0.784754,-0.289474 0.313901,-0.289473 0.470851,-0.783282 0.172646,-0.510836 0.219731,-1.174922 0.06277,-0.664087 0.06277,-1.430341 0,-0.766253 -0.06277,-1.43034 -0.04708,-0.681115 -0.219731,-1.174923 -0.15695,-0.493808 -0.455156,-0.783282 -0.298207,-0.289474 -0.800449,-0.289474 -0.502242,0 -0.800449,0.289474 -0.298205,0.289474 -0.470851,0.80031 -0.156951,0.493808 -0.219732,1.157895 -0.04708,0.664087 -0.04708,1.43034 z M 33,56.5 Q 33,53.775542 33.926008,52.396285 34.852018,51 36.5,51 38.210762,51 39.105381,52.396285 40,53.775542 40,56.5 40,59.224458 39.089686,60.620743 38.179372,62 36.515696,62 34.804933,62 33.894618,60.620743 33,59.224458 33,56.5 Z"
       style="font-style:normal;font-variant:normal;font-weight:bold;font-stretch:normal;font-size:16.77334785px;line-height:125%;font-family:'Ubuntu Mono';-inkscape-font-specification:'Ubuntu Mono, Bold';text-align:start;letter-spacing:0px;word-spacing:0px;writing-mode:lr-tb;text-anchor:start;fill:#ffffff;fill-opacity:1;stroke:none;stroke-width:1px;stroke-linecap:butt;stroke-linejoin:miter;stroke-opacity:1"
       id="path4164"
       inkscape:connector-curvature="0" />
    <path
       d="M 46.052301,62 Q 45.774058,61.0937 45.364018,59.991923 44.968619,58.890145 44.529289,57.788369 44.104603,58.836834 43.679917,59.974153 43.25523,61.0937 42.947699,62 L 41,62 q 0.146443,-0.479806 0.424687,-1.155089 0.292887,-0.675281 0.629706,-1.457189 0.351465,-0.781905 0.732218,-1.599353 0.380753,-0.835217 0.732218,-1.599353 L 41.146443,51 l 1.9477,0 1.435146,3.518579 L 46.037657,51 l 1.8159,0 -2.313807,5.135704 q 0.395396,0.764136 0.77615,1.599352 0.380752,0.835218 0.702929,1.634895 0.33682,0.781907 0.585773,1.47496 Q 47.853557,61.520194 48,62 l -1.947699,0 z"
       style="font-style:normal;font-variant:normal;font-weight:bold;font-stretch:normal;font-size:16.77334785px;line-height:125%;font-family:'Ubuntu Mono';-inkscape-font-specification:'Ubuntu Mono, Bold';text-align:start;letter-spacing:0px;word-spacing:0px;writing-mode:lr-tb;text-anchor:start;fill:#ffffff;fill-opacity:1;stroke:none;stroke-width:1px;stroke-linecap:butt;stroke-linejoin:miter;stroke-opacity:1"
       id="path4166"
       inkscape:connector-curvature="0" />
  </g>
  <path
     style="fill:#ffffff;fill-opacity:1;fill-rule:nonzero;stroke:none"
     d="m 31.92087,18.820577 c -1.532414,5.855082 -3.122749,11.696691 -4.682765,17.540997 -2.437224,-6.733761 -0.03617,-0.03167 -2.436205,-6.733103 l -4.801901,0 0,2.401214 3.600819,0 3.600817,10.773937 0.457312,0.01191 c 1.224011,-5.667135 2.878834,-11.238649 4.378848,-16.832759 l 0,-0.02183 c 0.927611,3.37586 1.837683,6.757814 2.737692,10.138462 0.843608,-3.179532 1.699639,-6.359839 2.548046,-9.539373 1.87562,4.283272 -0.03581,-0.01904 1.876998,4.28338 l 4.79947,0 -0.0023,-2.413318 -3.600818,0 c -3.07083,-9.147141 -1.8e-5,4.34e-4 -3.075647,-9.352612 -0.848409,3.156787 -1.702071,6.312184 -2.550478,9.464184 -0.858009,-3.245374 -1.734242,-6.490337 -2.625851,-9.726135 l 0.0025,0.0025 z"
     id="path55"
     inkscape:connector-curvature="0"
     sodipodi:nodetypes="ccccccccccccccccccccc" />
</svg>

<svg xmlns="http://www.w3.org/2000/svg" viewBox="0 0 64 64">
 <defs>
  
 </defs>
 <path d="m 10.672 0 c -1.375 0 -2.672 1.355 -2.672 2.789 l 0 58.42 c 0 1.355 1.375 2.789 2.672 2.789 l 42.656 0 c 1.297 0 2.672 -1.434 2.672 -2.789 l 0 -43.21 -18 -18 m -27.328 0" style="fill:#14aae9;fill-opacity:1;stroke:none;fill-rule:nonzero"/>
 <path d="m 42 18 14 14 0 -14 z m 0 0" style="fill:#000;fill-opacity:0.196;stroke:none;fill-rule:nonzero"/>
 <path d="m 38 0 17.984 18 -15.227 0 c -1.348 0 -2.758 -1.426 -2.758 -2.773 m 0 -15.227" style="fill:#fff;fill-opacity:0.392;stroke:none;fill-rule:nonzero"/>
 <path d="m 8 48 0 13.336 c 0 1.297 1.375 2.664 2.664 2.664 l 42.672 0 c 1.289 0 2.664 -1.367 2.664 -2.664 l 0 -13.336 z m 0 0" style="fill:#000;fill-opacity:0.196;stroke:none;fill-rule:nonzero"/>
 <g>
  <path d="m 18.914 62 q -0.404 -1.226 -0.859 -2.772 -0.455 -1.546 -0.859 -3.074 -0.404 -1.546 -0.724 -2.914 -0.32 -1.368 -0.472 -2.239 l 2.189 0 q 0.101 0.853 0.303 1.99 0.202 1.12 0.438 2.328 0.253 1.191 0.522 2.363 0.286 1.155 0.556 2.079 0.269 -0.906 0.539 -2.061 0.269 -1.173 0.505 -2.363 0.236 -1.208 0.438 -2.346 q 0.202 -1.137 0.337 -1.99 l 2.173 0 q -0.202 1.066 -0.505 2.381 -0.286 1.315 -0.674 2.772 -0.371 1.439 -0.825 2.95 q -0.455 1.493 -0.943 2.897 l -2.139 0 z" style="fill:#fff;fill-opacity:1;stroke:none"/>
  <path d="m 32 58.62 q 0 0.972 -0.32 1.631 -0.32 0.642 -0.877 1.041 -0.54 0.382 -1.299 0.555 q -0.742 0.156 -1.602 0.156 -0.692 0 -1.434 -0.087 -0.742 -0.069 -1.467 -0.226 l 0 -10.427 q 0.59 -0.104 1.299 -0.174 q 0.708 -0.087 1.4 -0.087 q 1.181 0 1.923 0.26 0.742 0.243 1.164 0.659 0.422 0.399 0.573 0.902 0.152 0.503 0.152 1.01 0 0.763 -0.371 1.353 -0.354 0.59 -0.961 0.937 1.063 0.399 1.434 1.076 q 0.388 0.677 0.388 1.423 m -4.925 -1.457 0 2.915 q 0.219 0.035 0.472 0.052 0.27 0.017 0.523 0.017 0.354 0 0.692 -0.052 0.337 -0.069 0.59 -0.226 0.27 -0.173 0.439 -0.468 0.169 -0.312 0.169 -0.781 0 -0.781 -0.489 -1.11 -0.472 -0.347 -1.282 -0.347 l -1.113 0 z m 0.81 -1.77 q 0.793 0 1.198 -0.347 0.405 -0.364 0.405 -0.989 0 -0.382 -0.118 -0.607 -0.118 -0.243 -0.32 -0.364 -0.202 -0.139 -0.472 -0.174 -0.27 -0.052 -0.557 -0.052 -0.236 0 -0.489 0.017 -0.253 0.017 -0.455 0.052 l 0 2.464 0.81 0 z" style="fill:#fff;fill-opacity:1;stroke:none"/>
  <path d="m 34.962 56.5 q 0 0.766 0.047 1.447 0.063 0.664 0.22 1.158 0.173 0.494 0.471 0.783 0.298 0.289 0.8 0.289 0.487 0 0.785 -0.289 0.314 -0.289 0.471 -0.783 0.173 -0.511 0.22 -1.175 0.063 -0.664 0.063 -1.43 0 -0.766 -0.063 -1.43 -0.047 -0.681 -0.22 -1.175 -0.157 -0.494 -0.455 -0.783 -0.298 -0.289 -0.8 -0.289 -0.502 0 -0.8 0.289 -0.298 0.289 -0.471 0.8 -0.157 0.494 -0.22 1.158 -0.047 0.664 -0.047 1.43 z m -1.962 0 q 0 -2.724 0.926 -4.104 0.926 -1.396 2.574 -1.396 1.711 0 2.605 1.396 0.895 1.379 0.895 4.104 0 2.724 -0.91 4.121 -0.91 1.379 -2.574 1.379 -1.711 0 -2.621 -1.379 -0.895 -1.396 -0.895 -4.121" style="fill:#fff;fill-opacity:1;stroke:none"/>
  <path d="m 46.05 62 q -0.278 -0.906 -0.688 -2.01 -0.395 -1.102 -0.835 -2.204 -0.425 1.048 -0.849 2.186 -0.425 1.12 -0.732 2.026 l -1.948 0 q 0.146 -0.48 0.425 -1.155 0.293 -0.675 0.63 -1.457 0.351 -0.782 0.732 -1.599 0.381 -0.835 0.732 -1.599 l -2.372 -5.189 l 1.948 0 1.435 3.519 l 1.508 -3.519 l 1.816 0 -2.314 5.136 q 0.395 0.764 0.776 1.599 0.381 0.835 0.703 1.635 0.337 0.782 0.586 1.475 q 0.249 0.675 0.395 1.155 l -1.948 0 z" style="fill:#fff;fill-opacity:1;stroke:none"/>
 </g>
 <path d="m 31.921 18.821 c -1.532 5.855 -3.123 11.697 -4.683 17.541 -2.437 -6.734 -0.036 -0.032 -2.436 -6.733 l -4.802 0 0 2.401 3.601 0 3.601 10.774 0.457 0.012 c 1.224 -5.667 2.879 -11.239 4.379 -16.833 l 0 -0.022 c 0.928 3.376 1.838 6.758 2.738 10.138 0.844 -3.18 1.7 -6.36 2.548 -9.539 1.876 4.283 -0.036 -0.019 1.877 4.283 l 4.799 0 -0.002 -2.413 -3.601 0 c -3.071 -9.147 0 0 -3.076 -9.353 -0.848 3.157 -1.702 6.312 -2.55 9.464 -0.858 -3.245 -1.734 -6.49 -2.626 -9.726 l 0.002 0.003 z" style="fill:#fff;fill-opacity:1;stroke:none;fill-rule:nonzero"/>
</svg>
